X:98
T:Prince William's Return. THO5.
M:6/8
L:1/8
B:Thompson's Complete Collection of 200 Favourite Dances Vol.5
F:https://www.libraryofdance.org/manuals/1780c-Thompson-Compleat-5.pdf
Z:vmp. Peter Dunk 2024
Q:3/8=100
K:A
a2.a e2e &A3-A3-|f2.f e3 &A3-A3|def edc|BcA GFE|
a2.a e2e &A3-A3-|f2.f e3 &A3-A3|def ecA|TB3A3:|
|:e3-e3- & c2.c B2.B|e3-e3 &d2.d c3|fga ecA|BcA GFE|
e3-e3- &c2.c B2.B|e3-e3 &d2.d c3|f2a ecA|TB3 A3:|
W:
W:Turn your Partner with the right hand then with the left ./.
W:Lead down the middle, up again to the top ./:
W:1st 2nd & 3rd Couples Promenade round :/.
W:Then La Poussett :/:

